X: 82
T: Now or Never
%R: reel
B: Chas & Sam Thompson "Twenty Four Country Dances for the Year 1776", London 1776, p.41 #2
F: http://www.vwml.org/browse/browse-collections-dance-tune-books/browse-thompsons1776#
Z: 2014 John Chambers <jc:trillian.mit.edu> (added dance description)
M: 2/4
L: 1/16
K: D
% - - - - - - - - - - - - - - - - - - - - - - - - - - - - -
|:\
(FD)DF (GE)EG | (FD)Df f2e2 |\
(FD)DF (GE)EG | (FD)Ec d2D2 :|
|:\
afdA gecA | fdAf f2e2 |\
afdA gecA | fdAc d2D2 :|
% - - - - - - - - - - Dance description - - - - - - - - - -
%%begintext align
%% Right hands across quite round .|
%% left hands back again :| cross over
%% & half figure .|| right and left
%% at top :||
%%endtext

%%sep 1 1 500
%%sep 1 1 500
